svg/white/ethos.svg

<svg xmlns="http://www.w3.org/2000/svg" width="32" height="32" viewBox="0 0 32 32">
  <g fill="#FFF">
    <path d="M16.034543,14.2861324 C17.2295292,14.2708956 18.1939061,13.2970906 18.1939061,12.0978022 C18.1933046,11.8693503 18.238801,11.6431252 18.3276723,11.4326673 C18.4578377,11.1264823 18.6738148,10.8644994 18.9495504,10.6783217 C19.0865637,10.5854071 19.236528,10.5132021 19.3946054,10.464036 C19.9159476,10.3010287 20.4838248,10.3976002 20.921978,10.7237762 C21.1333236,10.8810371 21.3058909,11.084564 21.4264735,11.3187812 C21.6553016,11.7689762 21.674843,12.2969585 21.4799201,12.7628372 C21.349676,13.0689744 21.1337157,13.3309369 20.858042,13.5171828 C20.7209489,13.6101083 20.5709222,13.6823446 20.4127872,13.7315684 C20.247803,13.7827007 20.0760225,13.8085352 19.9032967,13.8081918 C18.6945055,13.8081918 17.7154845,14.788012 17.7154845,15.9967033 C17.7154845,16.0429105 17.7169163,16.0887837 17.719738,16.1342808 C17.7874716,17.2820908 18.7395553,18.192008 19.9036963,18.192008 C20.1320722,18.1912177 20.3582498,18.2366163 20.5686314,18.3254745 C20.8746944,18.4558496 21.1365755,18.6718694 21.3227772,18.9475524 C21.6415111,19.4231571 21.702277,20.0263202 21.4848152,20.5559441 C21.4016739,20.7559721 21.2814451,20.9384677 21.1304695,21.0938062 C20.9737064,21.2554144 20.786759,21.384696 20.5802198,21.4743257 C20.1521267,21.6570901 19.6683035,21.6588918 19.2388611,21.4793207 C18.9328071,21.3489309 18.6709297,21.1329142 18.4847153,20.8572428 C18.2942204,20.5753677 18.1929281,20.2427044 18.194006,19.9024975 C18.194006,18.6975205 17.2204587,17.7199725 16.0176229,17.7138155 C16.0096276,17.7137294 16.001622,17.7136863 15.9936064,17.7136863 C14.7848152,17.7136863 13.8057942,18.6937063 13.8057942,19.9024975 C13.8064229,20.1308253 13.7610304,20.3569382 13.6723277,20.5673327 C13.5421574,20.8735147 13.3261813,21.1354963 13.0504496,21.3216783 C12.9133819,21.414648 12.7633485,21.4868876 12.6051948,21.5360639 C11.9881957,21.7290111 11.3151411,21.5565699 10.8669331,21.0907093 L10.8657343,21.0894106 C10.7157743,20.9343931 10.5964942,20.7524053 10.5141858,20.553047 C10.3421378,20.1309868 10.344257,19.6579642 10.5200799,19.2374625 C10.6503143,18.9312391 10.8662706,18.6691775 11.141958,18.4828172 C11.4237104,18.2922881 11.7562792,18.190958 12.0964036,18.192008 C13.3051948,18.192008 14.2842158,17.2122877 14.2842158,16.0034965 C14.2842158,15.9358286 14.2811456,15.868878 14.275137,15.8027763 C14.1769829,14.6849408 13.2388279,13.807992 12.0958042,13.807992 C11.8674269,13.808796 11.6412467,13.7633969 11.4308691,13.6745255 C11.1248031,13.5441554 10.8629207,13.3281345 10.6767233,13.0524476 C10.2228335,12.3802491 10.3051997,11.4825113 10.8709903,10.9041774 C10.8762845,10.8989878 10.8815589,10.8937658 10.8868132,10.8885115 C11.0427749,10.7321685 11.2274797,10.6074376 11.4307692,10.5211788 C11.8562058,10.3432546 12.3352028,10.3432546 12.7606394,10.5211788 C13.0666994,10.6515588 13.3285793,10.8675775 13.5147852,11.1432567 C13.7055571,11.4249997 13.806876,11.7577505 13.8054945,12.098002 C13.8054945,13.3067932 14.7852148,14.2865135 15.9933067,14.2865135 C16.0070822,14.2865135 16.020828,14.2863861 16.034543,14.2861324 Z M16.0000105,7.42546156 C15.2235965,6.77618108 14.2859356,6.32099649 13.2625536,6.1212513 C11.2866963,5.73560059 9.24886608,6.35241186 7.81874533,7.7669961 C7.80981036,7.77564181 7.80093082,7.7843787 7.79210789,7.79320679 C6.0494007,9.53350595 5.5273943,12.1525962 6.46972932,14.4280465 C6.70978847,15.0077158 7.03282173,15.5359686 7.42169197,16.0013602 C7.04513072,16.4524799 6.73032147,16.9626714 6.49286726,17.521613 C5.53788146,19.7695465 6.0190427,22.3706216 7.71498501,24.1281718 C9.43734197,25.9158204 12.0729496,26.4779521 14.374798,25.5486003 C14.9743899,25.3065202 15.5200166,24.9758858 15.9990801,24.5753826 C16.4755972,24.9740065 17.0180527,25.3034913 17.614059,25.5454204 C19.9106071,26.4776289 22.5430837,25.9234868 24.2689311,24.1445554 L24.2694306,24.1445554 C25.9725901,22.3891968 26.4612453,19.7856317 25.5104895,17.5321678 C25.2724135,16.9678226 24.9554704,16.4529556 24.5756813,15.998189 C24.7656198,15.7705831 24.9401775,15.5275797 25.097319,15.2703212 C26.2028744,13.4604019 26.2871096,11.2056454 25.3196803,9.31828172 C24.8942735,8.49067247 24.2852435,7.77130417 23.5391608,7.21518482 C23.5376623,7.21398601 23.5363636,7.21268731 23.5347652,7.21158841 C21.6884089,5.83816134 19.2252175,5.6238045 17.1693709,6.65764618 C16.7457874,6.87065739 16.3544285,7.12914788 16.0000105,7.42546156 Z M16,32 C7.163444,32 0,24.836556 0,16 C0,7.163444 7.163444,0 16,0 C24.836556,0 32,7.163444 32,16 C32,24.836556 24.836556,32 16,32 Z"/>
    <path d="M14.275137,15.8027763 C14.2811456,15.868878 14.2842158,15.9358286 14.2842158,16.0034965 C14.2842158,17.2122877 13.3051948,18.192008 12.0964036,18.192008 C11.7562792,18.190958 11.4237104,18.2922881 11.141958,18.4828172 C10.8662706,18.6691775 10.6503143,18.9312391 10.5200799,19.2374625 C10.344257,19.6579642 10.3421378,20.1309868 10.5141858,20.553047 C10.5964942,20.7524053 10.7157743,20.9343931 10.8657343,21.0894106 L10.8669331,21.0907093 C11.3151411,21.5565699 11.9881957,21.7290111 12.6051948,21.5360639 C12.7633485,21.4868876 12.9133819,21.414648 13.0504496,21.3216783 C13.3261813,21.1354963 13.5421574,20.8735147 13.6723277,20.5673327 C13.7610304,20.3569382 13.8064229,20.1308253 13.8057942,19.9024975 C13.8057942,18.6937063 14.7848152,17.7136863 15.9936064,17.7136863 C16.001622,17.7136863 16.0096276,17.7137294 16.0176229,17.7138155 C16.0138155,17.713796 16.0100058,17.7137862 16.0061938,17.7137862 C14.7981019,17.7137862 13.8183816,18.6938062 13.8183816,19.9024975 C13.8166549,21.7377973 14.639468,23.4380176 15.9990801,24.5753826 C15.5200166,24.9758858 14.9743899,25.3065202 14.374798,25.5486003 C12.0729496,26.4779521 9.43734197,25.9158204 7.71498501,24.1281718 C6.0190427,22.3706216 5.53788146,19.7695465 6.49286726,17.521613 C6.73032147,16.9626714 7.04513072,16.4524799 7.42169197,16.0013602 C8.55930406,17.3628301 10.2603577,18.1863256 12.0958042,18.1853147 C13.3045954,18.1853147 14.2836164,17.2054945 14.2836164,15.9968032 C14.2836164,15.9314191 14.2807503,15.8667038 14.275137,15.8027763 Z M24.5756813,15.998189 C23.4384611,14.6364601 21.7377566,13.8135984 19.9036963,13.8147852 C18.6949051,13.8147852 17.7158841,14.7945055 17.7158841,16.0032967 C17.7158841,16.047273 17.7171808,16.0909465 17.719738,16.1342808 C17.7169163,16.0887837 17.7154845,16.0429105 17.7154845,15.9967033 C17.7154845,14.788012 18.6945055,13.8081918 19.9032967,13.8081918 C20.0760225,13.8085352 20.247803,13.7827007 20.4127872,13.7315684 C20.5709222,13.6823446 20.7209489,13.6101083 20.858042,13.5171828 C21.1337157,13.3309369 21.349676,13.0689744 21.4799201,12.7628372 C21.674843,12.2969585 21.6553016,11.7689762 21.4264735,11.3187812 C21.3058909,11.084564 21.1333236,10.8810371 20.921978,10.7237762 C20.4838248,10.3976002 19.9159476,10.3010287 19.3946054,10.464036 C19.236528,10.5132021 19.0865637,10.5854071 18.9495504,10.6783217 C18.6738148,10.8644994 18.4578377,11.1264823 18.3276723,11.4326673 C18.238801,11.6431252 18.1933046,11.8693503 18.1939061,12.0978022 C18.1939061,13.3065934 17.2141858,14.2863137 16.0060939,14.2863137 C14.798002,14.2863137 13.8182817,13.3065934 13.8182817,12.0978022 C13.8167667,9.79664354 15.1135244,7.69148785 17.1693709,6.65764618 C19.2252175,5.6238045 21.6884089,5.83816134 23.5347652,7.21158841 C23.5363636,7.21268731 23.5376623,7.21398601 23.5391608,7.21518482 C24.2852435,7.77130417 24.8942735,8.49067247 25.3196803,9.31828172 C26.2871096,11.2056454 26.2028744,13.4604019 25.097319,15.2703212 C24.9401775,15.5275797 24.7656198,15.7705831 24.5756813,15.998189 Z" opacity=".622"/>
  </g>
</svg>

<svg xmlns="http://www.w3.org/2000/svg" width="32" height="32"><g fill="#FFF"><path d="M16.035 14.286a2.188 2.188 0 0 0 2.159-2.188 1.698 1.698 0 0 1 .756-1.42 1.705 1.705 0 0 1 2.477.64c.228.451.248.979.053 1.445a1.726 1.726 0 0 1-1.067.969 1.71 1.71 0 0 1-.51.076 2.188 2.188 0 0 0-2.183 2.326 2.188 2.188 0 0 0 2.184 2.058 1.694 1.694 0 0 1 1.419.756c.319.475.38 1.078.162 1.608a1.718 1.718 0 0 1-.905.918 1.723 1.723 0 0 1-1.341.005 1.727 1.727 0 0 1-.754-.622 1.696 1.696 0 0 1-.291-.955 2.188 2.188 0 0 0-2.2-2.188c-1.21 0-2.188.98-2.188 2.188a1.7 1.7 0 0 1-.756 1.42 1.706 1.706 0 0 1-2.184-.231v-.002a1.71 1.71 0 0 1 1.23-2.897 2.188 2.188 0 0 0 2.18-2.39 2.188 2.188 0 0 0-2.18-1.994c-.229 0-.455-.045-.665-.133a1.726 1.726 0 0 1-.754-.623 1.707 1.707 0 0 1 .754-2.53 1.723 1.723 0 0 1 1.33 0c.306.13.568.346.754.621.19.282.292.615.29.955a2.188 2.188 0 0 0 2.23 2.188zM16 7.426a6.081 6.081 0 0 0-8.208.367 6.086 6.086 0 0 0-.37 8.208 6.087 6.087 0 0 0 .293 8.127 6.085 6.085 0 0 0 8.284.447 6.084 6.084 0 0 0 8.27-.43 6.094 6.094 0 0 0 .307-8.147 6.093 6.093 0 0 0 .744-6.68 6.103 6.103 0 0 0-1.78-2.103l-.005-.003A6.085 6.085 0 0 0 16 7.425zM16 32C7.163 32 0 24.837 0 16S7.163 0 16 0s16 7.163 16 16-7.163 16-16 16z"/><path d="M14.275 15.803a2.188 2.188 0 0 1-2.179 2.39c-.34-.002-.672.1-.954.29a1.726 1.726 0 0 0-.622.754 1.71 1.71 0 0 0 .346 1.852v.002a1.706 1.706 0 0 0 2.184.23 1.7 1.7 0 0 0 .755-1.42 2.188 2.188 0 0 1 2.201-2.187c-1.208 0-2.188.98-2.188 2.188A6.084 6.084 0 0 0 16 24.575a6.085 6.085 0 0 1-8.284-.447 6.087 6.087 0 0 1-.293-8.127 6.086 6.086 0 0 0 4.674 2.184 2.188 2.188 0 0 0 2.18-2.382zm10.3.195a6.081 6.081 0 0 0-4.671-2.183 2.188 2.188 0 0 0-2.189 2.182c0-1.209.98-2.189 2.188-2.189a1.71 1.71 0 0 0 1.577-1.045 1.721 1.721 0 0 0-.054-1.444 1.705 1.705 0 0 0-2.477-.64 1.698 1.698 0 0 0-.756 1.42 2.188 2.188 0 1 1-4.375-.001 6.085 6.085 0 0 1 9.717-4.886l.004.003a6.09 6.09 0 0 1 1.037 8.783z" opacity=".622"/></g></svg>
